public/library/1money-icon-light.svg

<svg xmlns="http://www.w3.org/2000/svg" width="209" height="209" viewBox="0 0 209 209" fill="none">
  <path fill-rule="evenodd" clip-rule="evenodd" d="M125.299 114.152C150.629 105.546 168.999 81.8782 169.742 53.8177C191.946 59.7627 208.297 80.0231 208.297 104.102C208.297 132.85 184.993 156.154 156.245 156.154C137.309 156.154 120.735 146.043 111.627 130.924C113.745 126.372 115.357 121.537 116.389 116.49C117.15 116.347 117.906 116.191 118.658 116.022C120.918 115.513 123.134 114.887 125.299 114.152ZM91.7899 116.451C97.4793 146.197 123.26 168.809 154.467 169.625C148.531 191.843 128.264 208.207 104.175 208.207C75.4275 208.207 52.1232 184.903 52.1232 156.155C52.1232 137.361 62.0841 120.893 77.0146 111.743C81.6732 113.867 86.6239 115.462 91.7899 116.451ZM91.7887 91.7452C62.0527 97.4271 39.4447 123.192 38.6197 154.384C16.4172 148.438 0.0684814 128.179 0.0684814 104.101C0.0684814 75.3532 23.3728 52.0488 52.1202 52.0488C70.8955 52.0488 87.349 61.9895 96.5048 76.8948C94.3725 81.5762 92.7745 86.5523 91.7887 91.7452ZM116.752 91.7816C111.425 61.6782 85.5628 38.6655 54.1561 37.7344C60.3753 15.9489 80.4321 0 104.214 0C132.961 0 156.266 23.3043 156.266 52.0517C156.266 70.8451 146.306 87.3122 131.377 96.4627C126.763 94.3584 121.864 92.7731 116.752 91.7816Z" fill="#073387"/>
</svg>

<svg xmlns="http://www.w3.org/2000/svg" width="209" height="209" fill="none" viewBox="0 0 209 209"><path fill="#073387" fill-rule="evenodd" d="M125.299 114.152c25.33-8.606 43.7-32.274 44.443-60.334 22.204 5.945 38.555 26.205 38.555 50.284 0 28.748-23.304 52.052-52.052 52.052-18.936 0-35.51-10.111-44.618-25.23a65 65 0 0 0 4.762-14.434 65.262 65.262 0 0 0 8.91-2.338m-33.51 2.299c5.69 29.746 31.471 52.358 62.678 53.174-5.936 22.218-26.203 38.582-50.292 38.582-28.748 0-52.052-23.304-52.052-52.052 0-18.794 9.961-35.262 24.892-44.412a65 65 0 0 0 14.775 4.708m0-24.706c-29.736 5.682-52.344 31.447-53.17 62.639C16.418 148.438.07 128.179.07 104.101c0-28.748 23.304-52.052 52.051-52.052 18.776 0 35.229 9.94 44.385 24.846a65 65 0 0 0-4.716 14.85m24.963.037c-5.327-30.104-31.19-53.116-62.596-54.048C60.376 15.95 80.432 0 104.214 0c28.747 0 52.052 23.304 52.052 52.052 0 18.793-9.96 35.26-24.889 44.41a65 65 0 0 0-14.625-4.68" clip-rule="evenodd"/></svg>
